symbols/be/PVA-{130}.svg

<?xml version="1.0" encoding="UTF-8" standalone="no"?>
<!-- Initially created with Inkscape, optimized by hand -->

<svg
   version="1.1"
   width="20"
   height="17.320995"
   id="svg1"
   xmlns="http://www.w3.org/2000/svg"
   xmlns:svg="http://www.w3.org/2000/svg">
  <defs
     id="defs1" />
  <path
     id="Fond"
     d="M 20,-1.2580566e-6 H 3.1098633e-6 L 10.000003,17.320999 Z"
     fill="#edd827"
     style="stroke-width:0.1" />
  <path
     d="m 8.8407371,9.2268437 v -6.389353 c 0,-0.106667 -0.032,-0.192001 -0.106667,-0.266668 -0.064,-0.07467 -0.362667,-0.149334 -0.501334,-0.01067 l -1.429338,1.429337 c -0.149334,0.149334 -0.096,0.426668 0.01067,0.533335 0.096,0.106667 0.352001,0.128001 0.490669,-0.01067 l 0.821335,-0.832003 v 5.557351 c 0,0.192001 0.170668,0.352001 0.362668,0.352001 0.192001,0 0.352001,-0.16 0.352001,-0.362668 z m 4.4480039,-1.418671 v -0.704002 c 0,-0.597335 -0.277334,-1.184004 -0.693335,-1.429338 0.352001,-0.288001 0.640002,-0.810669 0.640002,-1.397338 0,-0.501335 -0.128001,-0.864002 -0.437335,-1.216003 -0.288001,-0.330668 -0.778669,-0.565336 -1.333337,-0.565336 h -1.429338 c -0.1920009,0 -0.3520009,0.170668 -0.3520009,0.362668 0,0.192001 0.16,0.352001 0.3520009,0.352001 h 1.429338 c 0.330667,0 0.608001,0.128001 0.789335,0.330668 0.213334,0.224001 0.277335,0.725336 0.277335,0.725336 0,0.330667 -0.096,0.565335 -0.341335,0.789335 -0.224001,0.202668 -0.426668,0.266668 -0.725335,0.266668 h -0.672003 c -0.192,0 -0.352001,0.16 -0.352001,0.352001 0,0.192001 0.160001,0.362668 0.352001,0.362668 h 0.714669 c 0.298668,0 0.512002,0.064 0.725336,0.266667 0.256001,0.224001 0.341334,0.458669 0.341334,0.800003 v 0.704002 c 0,0.309334 -0.05333,0.512002 -0.266667,0.746669 -0.181334,0.192001 -0.458668,0.320001 -0.800003,0.320001 h -1.418671 c -0.1919999,0 -0.3520009,0.170667 -0.3520009,0.362668 0,0.192001 0.160001,0.352001 0.3520009,0.352001 h 1.418671 c 0.565335,0 1.045337,-0.224001 1.344005,-0.565335 0.298667,-0.341334 0.437334,-0.704002 0.437334,-1.216004 z"
     id="text1"
     style="font-size:10.6667px;font-family:Isonorm;-inkscape-font-specification:'Isonorm, Normal';fill-rule:evenodd;stroke-width:0.08"
     aria-label="13" />
</svg>

<?xml version="1.0" encoding="UTF-8"?>
<svg xmlns="http://www.w3.org/2000/svg" xmlns:xlink="http://www.w3.org/1999/xlink" width="20" height="17.320995" viewBox="0 0 20 17.320995">
<path fill-rule="nonzero" fill="rgb(92.941176%, 84.705882%, 15.294118%)" fill-opacity="1" d="M 20 0 L 0 0 L 10 17.320312 Z M 20 0 "/>
<path fill-rule="evenodd" fill="rgb(0%, 0%, 0%)" fill-opacity="1" d="M 8.839844 9.226562 L 8.839844 2.835938 C 8.839844 2.730469 8.808594 2.644531 8.734375 2.570312 C 8.671875 2.496094 8.371094 2.421875 8.234375 2.558594 L 6.804688 3.988281 C 6.652344 4.140625 6.707031 4.417969 6.8125 4.523438 C 6.910156 4.628906 7.167969 4.652344 7.304688 4.511719 L 8.125 3.679688 L 8.125 9.238281 C 8.125 9.429688 8.296875 9.589844 8.488281 9.589844 C 8.679688 9.589844 8.839844 9.429688 8.839844 9.226562 Z M 13.289062 7.808594 L 13.289062 7.105469 C 13.289062 6.507812 13.011719 5.921875 12.59375 5.675781 C 12.949219 5.386719 13.234375 4.863281 13.234375 4.277344 C 13.234375 3.777344 13.105469 3.414062 12.796875 3.0625 C 12.511719 2.730469 12.019531 2.496094 11.464844 2.496094 L 10.035156 2.496094 C 9.84375 2.496094 9.683594 2.667969 9.683594 2.859375 C 9.683594 3.050781 9.84375 3.210938 10.035156 3.210938 L 11.464844 3.210938 C 11.796875 3.210938 12.074219 3.339844 12.253906 3.542969 C 12.46875 3.765625 12.53125 4.265625 12.53125 4.265625 C 12.53125 4.597656 12.433594 4.832031 12.191406 5.054688 C 11.964844 5.257812 11.761719 5.324219 11.464844 5.324219 L 10.792969 5.324219 C 10.601562 5.324219 10.441406 5.484375 10.441406 5.675781 C 10.441406 5.867188 10.601562 6.039062 10.792969 6.039062 L 11.507812 6.039062 C 11.804688 6.039062 12.019531 6.101562 12.234375 6.304688 C 12.488281 6.527344 12.574219 6.761719 12.574219 7.105469 L 12.574219 7.808594 C 12.574219 8.117188 12.519531 8.320312 12.308594 8.554688 C 12.125 8.746094 11.847656 8.875 11.507812 8.875 L 10.089844 8.875 C 9.898438 8.875 9.738281 9.046875 9.738281 9.238281 C 9.738281 9.429688 9.898438 9.589844 10.089844 9.589844 L 11.507812 9.589844 C 12.074219 9.589844 12.554688 9.367188 12.851562 9.023438 C 13.148438 8.683594 13.289062 8.320312 13.289062 7.808594 Z M 13.289062 7.808594 "/>
</svg>
